svg/malaria_negative_microscope_positive.svg

<?xml version="1.0" encoding="UTF-8" standalone="no"?>
<!-- Created with Inkscape (http://www.inkscape.org/) -->
<svg id="svg8" xmlns:rdf="http://www.w3.org/1999/02/22-rdf-syntax-ns#" xmlns="http://www.w3.org/2000/svg" xmlns:osb="http://www.openswatchbook.org/uri/2009/osb" height="48" width="48" version="1.1" xmlns:cc="http://creativecommons.org/ns#" viewBox="0 0 12.7 12.7" xmlns:dc="http://purl.org/dc/elements/1.1/">
 <title id="title4753">UIO-icon</title>
 <metadata id="metadata5">
  <rdf:RDF>
   <cc:Work rdf:about="">
    <dc:format>image/svg+xml</dc:format>
    <dc:type rdf:resource="http://purl.org/dc/dcmitype/StillImage"/>
    <dc:title>UIO-icon</dc:title>
    <dc:creator>
     <cc:Agent>
      <dc:title>Joaquín Urbano</dc:title>
     </cc:Agent>
    </dc:creator>
    <dc:rights>
     <cc:Agent>
      <dc:title>GPL</dc:title>
     </cc:Agent>
    </dc:rights>
   </cc:Work>
  </rdf:RDF>
 </metadata>
 <g id="layer1" transform="translate(0,-284.3)" fill="#333">
  <path id="path1431" d="m24 4c-11.046-3.78e-7 -20 8.9543-20 20-3.33e-7 11.046 8.9543 20 20 20 11.046 3.8e-7 20-8.9543 20-20 3.4e-7 -11.046-8.9543-20-20-20zm0 0.51758c10.76 0 19.482 8.7224 19.482 19.482s-8.722 19.482-19.482 19.482-19.482-8.722-19.482-19.482c-0.0004-10.76 8.722-19.482 19.482-19.482zm5.2969 4.3613c-0.22971 0.010193-0.44796 0.056585-0.65234 0.13867-1.9821 0.79181-2.2829 4.7006-0.67188 8.7305 1.6123 4.0308 4.5263 6.6545 6.5078 5.8594 1.9821-0.79181 2.2829-4.7006 0.67188-8.7305-1.42-3.552-3.893-6.0846-5.855-5.9981zm-10.273 0.74219c-1.8842 0.087095-4.373 1.7604-6.3184 4.248-2.6732 3.4191-3.4768 7.2561-1.7949 8.5703 1.6811 1.3149 5.2112-0.39017 7.8848-3.8086 2.6732-3.4191 3.4768-7.2561 1.7949-8.5703-0.407-0.3181-0.94-0.4676-1.567-0.4389zm6.867 15.535c-1.0248-0.010058-1.8119 0.29502-2.2676 0.87891-1.3149 1.6811 0.39017 5.2112 3.8086 7.8848 3.4191 2.6732 7.2561 3.4768 8.5703 1.7949 1.315-1.681-0.39-5.211-3.809-7.885-2.107-1.648-4.482-2.655-6.302-2.674zm-11.594 0.72266c-0.22971 0.010192-0.44796 0.056585-0.65234 0.13867-1.9821 0.79181-2.2829 4.7006-0.67188 8.7305 1.6123 4.0308 4.5263 6.6545 6.5078 5.8594 1.9821-0.79181 2.2829-4.7006 0.67188-8.7305-1.4208-3.5521-3.893-6.0846-5.8555-5.998z" fill-rule="evenodd" transform="matrix(.26458 0 0 .26458 0 284.3)"/>
 </g>
</svg>

<svg width="48" height="48" viewBox="0 0 48 48" fill="none" xmlns="http://www.w3.org/2000/svg">
<path fill-rule="evenodd" clip-rule="evenodd" d="M23.9997 4C12.9539 4 4 12.9542 4 23.9997C4 35.0456 12.9542 43.9995 23.9997 43.9995C35.0456 43.9995 43.9995 35.0453 43.9995 23.9997C43.9995 12.9539 35.0453 4 23.9997 4ZM23.9997 4.51757C34.7596 4.51757 43.4815 13.2399 43.4815 23.9993C43.4815 34.7588 34.7596 43.4811 23.9997 43.4811C13.2399 43.4811 4.51799 34.7592 4.51799 23.9993C4.51759 13.2395 13.2399 4.51757 23.9997 4.51757ZM29.2966 8.87882C29.0669 8.88901 28.8486 8.9354 28.6443 9.01749C26.6622 9.80929 26.3614 13.718 27.9724 17.7479C29.5847 21.7786 32.4986 24.4023 34.4801 23.6072C36.4622 22.8154 36.763 18.9067 35.152 14.8768C33.732 11.3249 31.259 8.79229 29.297 8.87879L29.2966 8.87882ZM19.0237 9.621C17.1395 9.70809 14.6508 11.3814 12.7054 13.8689C10.0322 17.288 9.22863 21.125 10.9105 22.4391C12.5916 23.754 16.1216 22.049 18.7952 18.6306C21.4684 15.2115 22.272 11.3746 20.5901 10.0604C20.1831 9.7423 19.6501 9.5928 19.0231 9.6215L19.0237 9.621ZM25.8906 25.1558C24.8658 25.1457 24.0787 25.4508 23.6231 26.0347C22.3082 27.7158 24.0132 31.2458 27.4316 33.9194C30.8507 36.5926 34.6876 37.3962 36.0018 35.7143C37.3168 34.0333 35.6118 30.5033 32.1928 27.8294C30.0859 26.1814 27.7109 25.1744 25.8909 25.1554L25.8906 25.1558ZM14.2968 25.8785C14.0671 25.8886 13.8488 25.935 13.6444 26.0171C11.6624 26.8089 11.3616 30.7177 12.9726 34.7475C14.5848 38.7783 17.4988 41.4019 19.4803 40.6068C21.4624 39.815 21.7632 35.9063 20.1522 31.8764C18.7314 28.3244 16.2592 25.7919 14.2967 25.8785H14.2968Z" fill="#333333"/>
</svg>
